svg/account_wrench.svg

<svg xmlns="http://www.w3.org/2000/svg" viewBox="0 0 24 24"><path d="m22.9 21.2-4.1-4.1c.4-1 .2-2.3-.7-3.1-.9-.9-2.2-1.1-3.3-.6l1.9 1.9-1.4 1.4-2-2c-.5 1.1-.3 2.4.6 3.4.9.9 2.1 1.1 3.1.7l4.1 4.1c.2.2.5.2.6 0l1-1c.3-.3.3-.6.2-.7M13 20H2v-2c0-2.2 3.6-4 8-4 .5 0 1 0 1.4.1-.3.6-.4 1.2-.4 1.9 0 1.6.8 3.1 2 4M10 4C7.8 4 6 5.8 6 8s1.8 4 4 4 4-1.8 4-4-1.8-4-4-4"/></svg>

<svg xmlns="http://www.w3.org/2000/svg" id="mdi-account-wrench" viewBox="0 0 24 24"><path d="M22.9 21.2L18.8 17.1C19.2 16.1 19 14.8 18.1 14C17.2 13.1 15.9 12.9 14.8 13.4L16.7 15.3L15.3 16.7L13.3 14.7C12.8 15.8 13 17.1 13.9 18.1C14.8 19 16 19.2 17 18.8L21.1 22.9C21.3 23.1 21.6 23.1 21.7 22.9L22.7 21.9C23 21.6 23 21.3 22.9 21.2M13 20H2V18C2 15.8 5.6 14 10 14C10.5 14 11 14 11.4 14.1C11.1 14.7 11 15.3 11 16C11 17.6 11.8 19.1 13 20M10 4C7.8 4 6 5.8 6 8S7.8 12 10 12 14 10.2 14 8 12.2 4 10 4" /></svg>
